X: 85
M:C|
L:1/8
K:Bb
uF2|B>AB>c B>cd>e|f>=ef>g f>dB>d|\
f>=ef>g f>dc>B|A>cB>G F>ed>c|
|B>AB>c B>cd>e|f>=ef>g f>ag>f|=e>fg>a b>ge>g|f>ca>g f2:|
|:(ucB)|A>f=e>f d>fB>f|\


